icon-themes/sifr_svg/cmd/lc_window3d.svg

<svg viewBox="0 0 24 24" xmlns="http://www.w3.org/2000/svg"><path d="m9 2-7 7v13h13l7-6v-14zm.6992188 2h9.6017812l-4.959203 5h-9.7665237zm10.3007812 2.152344v9.426311l-5 4.421345v-8.79661l.177734-.20339zm-16 4.847656h9v9h-9z" fill="#555753"/></svg>

<svg xmlns="http://www.w3.org/2000/svg" viewBox="0 0 24 24">
  <path
     style="fill:#555753"
     d="M 9,2 2,9 v 13 h 13 l 7,-6 V 2 Z M 9.6992188,4 H 19.301 L 14.341797,9 H 4.5752733 Z M 20,6.152344 v 9.426311 L 15,20 V 11.20339 L 15.177734,11 Z M 4,11 h 9 v 9 H 4 Z"
     />
</svg>
